X:1
T:Title
%%score { ( 1 2 ) | ( 3 4 ) }
L:1/8
M:4/4
K:Eb
V:1 treble nm="Grand Piano"
V:2 treble 
V:3 bass 
V:4 bass 
V:1
 z4 z2[Q:1/4=100] z G | [EGB]2 [EGB]2 [EGB]2 [B,FA]2 | [B,EG]3 [B,FA] [B,GB]2 [B,EG]2 | %3
 [A,DF]2 [A,DF]2 [A,CF]2 [B,G]F |[M:3/4] E4 B,2 |[M:1/4] EG |[M:4/4] [GB]2 [GB]2 [GB]2 [FA]2 | %7
 [EG]3 [GB] [Ge]2 [B,EG]2 | [A,DF]2 [A,DF]2 [B,DG]2 [A,DF]2 |[M:3/4] [G,E]6 |[M:1/4] [B,D]E | %11
[M:4/4] [DF]2 [DF]2 [DF]2 [DB]2 | B3 =A A2 [DB]2 | [DB]2 [DF]2 [DF]2 [FA]2 |[M:3/4] [FA]4 G2 | %15
[M:1/4] [G,B,E][EG] |[M:4/4] [GB]2 [GB]2 [GB]2 [FA]2 | [EG]3 [GB] [Ge]2 [B,EG]2 | %18
 [A,DF]2 [A,DF]2 [B,DG]2 [A,DF]2 |[M:7/4] [G,E]6 z2 z2 z4 |] %20
V:2
 z4 z2 E2 | x8 | x8 | x8 |[M:3/4] x6 |[M:1/4] x2 |[M:4/4] x8 | x8 | x8 |[M:3/4] x6 |[M:1/4] x2 | %11
[M:4/4] x8 | x8 | x8 |[M:3/4] x6 |[M:1/4] x2 |[M:4/4] x8 | x8 | x8 |[M:7/4] x14 |] %20
V:3
 z4 z2 G,B, | E,2 E,2 E,2 E,2 | E,3 E, E,2 E,2 | B,,2 B,,2 B,,2 z A, |[M:3/4] B,4 z2 | %5
[M:1/4] [G,B,][B,E] |[M:4/4] [E,E]2 [E,E]2 [E,E]2 [E,B,]2 | [E,B,]3 [E,B,] [E,B,]2 E,2 | %8
 B,,2 B,,2 B,,2 B,,2 |[M:3/4] E,6 |[M:1/4] z C |[M:4/4] [B,,B,]2 [B,,B,]2 [B,,B,]2 [B,,F,]2 | %12
 [F,D]3 [F,C] [F,C]2 [B,,F,]2 | [B,,F,]2 [B,,B,]2 [B,,B,]2 [B,,B,]2 |[M:3/4] z2 z2 E2 | %15
[M:1/4] z B, |[M:4/4] [E,E]2 [E,E]2 [E,E]2 [E,B,]2 | [E,B,]3 [E,B,] [E,B,]2 E,2 | %18
 B,,2 B,,2 B,,2 B,,2 |[M:7/4] E,6 z2 z2 z4 |] %20
V:4
 z4 z2 E,2 | x8 | x8 | z4 z2 B,,2 |[M:3/4] [E,G,]6 |[M:1/4] E,2 |[M:4/4] x8 | x8 | x8 |[M:3/4] x6 | %10
[M:1/4] B,,2 |[M:4/4] x8 | x8 | x8 |[M:3/4] [E,B,]6 |[M:1/4] E,2 |[M:4/4] x8 | x8 | x8 | %19
[M:7/4] x14 |] %20

